X: 3320
T: The JOLLY BUTCHERS
%R: hornpipe, reel
B: James Kerr "Merry Melodies" v.3 p.35 #320
Z: 2016 John Chambers <jc:trillian.mit.edu>
M: C
L: 1/8
K: D
(uFE) |\
DA,FD AFdA | Bged cbag |\
fedc Bged | (3(cdc) (3(BcB) AGFE |\
DA,FD AFdA | Bged cbag |\
fedc Bgec | dcdc d2 :|
|: (fg) |\
a^gaf def=g | afdd d2(ef) |\
gfge cdef | (3(gag) (3(fgf) egfe |\
dfec dDFA | Bged cbag |\
fedc Bgec | dcdc d2 :|

%%sep 1 1 500
%%sep 1 1 500

